X: 1
T: Gan Ainm
M: 6/8
L: 1/8
R: jig
K: Gmaj
dc | BcB GBG | GBg fdc | BcB GBG | dGB cBA |
~B3 GBG | GBg fdc | ~B3 ~c3 | dDB cBA :|
|: Geg fdg | fdg fdc | Bdg fdc | ~B3 cBA |
Geg fda | bag fdc | ~B3 ~c3 | dGB cBA :|
